images/Written-By-Human-Not-By-AI-Badge-black.svg

<svg width="131" height="42" viewBox="0 0 131 42" fill="none" xmlns="http://www.w3.org/2000/svg">
<path d="M0.5 0.5H116C124.008 0.5 130.5 6.99187 130.5 15V41.5H15C6.99187 41.5 0.5 35.0081 0.5 27V0.5Z" fill="black" stroke="#ACACAC"/>
<path d="M17.9605 24.1575C21.4266 26.9643 26.3836 26.9643 29.8497 24.1575L28.5095 22.5026C25.8248 24.6766 21.9854 24.6766 19.3007 22.5026L17.9605 24.1575Z" fill="white"/>
<path d="M19.404 20.5134V17.6365H21.5336V20.5134H19.404Z" fill="white"/>
<path d="M26.012 17.6365V20.5134H28.1415V17.6365H26.012Z" fill="white"/>
<path fill-rule="evenodd" clip-rule="evenodd" d="M35 21.5C35 27.8513 29.8513 33 23.5 33C17.1487 33 12 27.8513 12 21.5C12 15.1487 17.1487 10 23.5 10C29.8513 10 35 15.1487 35 21.5ZM32.8705 21.5C32.8705 26.6752 28.6752 30.8705 23.5 30.8705C18.3248 30.8705 14.1295 26.6752 14.1295 21.5C14.1295 16.3248 18.3248 12.1295 23.5 12.1295C28.6752 12.1295 32.8705 16.3248 32.8705 21.5Z" fill="white"/>
<path d="M62.844 12.1721L63.0435 12.8831L63.2294 12.8197C63.5169 12.7216 63.8276 12.6155 64.1503 12.5052V15.0552C64.1503 15.1818 64.1005 15.2208 63.9709 15.2208C63.8612 15.2208 63.4922 15.2208 63.0634 15.211C63.1631 15.4156 63.2628 15.7273 63.2928 15.9123C63.901 15.9123 64.28 15.8929 64.5293 15.776C64.7686 15.6591 64.8583 15.4545 64.8583 15.0455V12.2629C65.2106 12.1421 65.5673 12.0195 65.9154 11.8994L65.8057 11.2273C65.4898 11.3348 65.1706 11.4415 64.8583 11.5441V9.63961H65.8057V8.95779H64.8583V7H64.1503V8.95779H62.9936V9.63961H64.1503V11.7732C63.6577 11.9301 63.2064 12.0683 62.844 12.1721Z" fill="white"/>
<path fill-rule="evenodd" clip-rule="evenodd" d="M67.0322 10.7695C66.3142 10.7695 66.1347 10.5162 66.1347 9.8052V7.39935H68.7474V9.32792H66.763V9.81494C66.763 10.1169 66.8128 10.2045 67.0322 10.2045H68.2986C68.4781 10.2045 68.7474 10.1948 68.9069 10.1656C68.9134 10.2165 68.92 10.2777 68.9268 10.3422C68.941 10.4754 68.9566 10.6224 68.9767 10.7208C68.8371 10.7597 68.5779 10.7695 68.3086 10.7695H67.0322ZM66.763 7.90584H68.1391V8.82143H66.763V7.90584Z" fill="white"/>
<path fill-rule="evenodd" clip-rule="evenodd" d="M70.0736 10.7208C69.3656 10.7208 69.1861 10.4773 69.1861 9.76623V7.39935H71.8087V9.2987H69.8144V9.77597C69.8144 10.0682 69.8642 10.1656 70.0936 10.1656H71.4198C71.5993 10.1656 71.8985 10.1461 72.058 10.1071C72.068 10.2825 72.0979 10.5357 72.1179 10.6721C71.9783 10.7208 71.709 10.7208 71.4298 10.7208H70.0736ZM69.8144 7.90584H71.2104V8.79221H69.8144V7.90584Z" fill="white"/>
<path d="M67.83 14.1299C67.2715 14.6753 66.3142 15.1818 65.4567 15.5032C65.6262 15.6201 65.9054 15.8539 66.035 15.9805C66.8727 15.6104 67.8898 14.9968 68.5081 14.3831L67.83 14.1299Z" fill="white"/>
<path d="M69.4554 14.4513C70.2132 14.9091 71.1905 15.5812 71.6791 16L72.2974 15.6104C71.7788 15.1818 70.7916 14.539 70.0437 14.1007L69.4554 14.4513Z" fill="white"/>
<path d="M51.4761 15.9318C50.798 15.5617 49.6612 15.0942 48.5344 14.7338L49.0031 14.2468C50.1299 14.5974 51.3564 15.0552 52.0844 15.4253L51.4761 15.9318Z" fill="white"/>
<path d="M43 15.4156C44.067 15.1623 45.4032 14.6656 46.0713 14.2468L46.7594 14.6753C45.9218 15.1721 44.5855 15.6786 43.5185 15.9513C43.4088 15.8052 43.1596 15.5519 43 15.4156Z" fill="white"/>
<path d="M57.1556 7.21693C57.1571 7.15007 57.1585 7.0868 57.1601 7.02922H57.9877L57.9868 7.0714C57.9788 7.4194 57.968 7.88942 57.9233 8.43665C58.0639 9.58208 58.6711 13.7136 62.2258 15.2597C62.0064 15.4253 61.787 15.6786 61.6773 15.8831C59.1702 14.7391 58.0901 12.3347 57.5998 10.5147C57.13 12.4644 56.0681 14.6445 53.63 15.9221C53.5004 15.7273 53.2511 15.5032 53.0217 15.3474C57.0193 13.3717 57.1185 8.89288 57.1556 7.21693Z" fill="white"/>
<path d="M76.0586 9.43506C76.1376 9.06022 76.2116 8.69288 76.2761 8.3539L75.5283 8.27597C75.3089 9.50325 74.9299 11.1688 74.6408 12.1623L75.3986 12.2305C75.4264 12.1301 75.4552 12.0226 75.4848 11.9091H79.3699C79.3296 12.3408 79.2883 12.7224 79.2455 13.0584H73.0851V13.7403H79.1462C79.0034 14.5883 78.8408 15.0239 78.6395 15.1916C78.5198 15.289 78.4002 15.2987 78.1708 15.2987C77.9215 15.2987 77.2334 15.2987 76.5454 15.2305C76.675 15.4253 76.7747 15.7175 76.7947 15.9221C77.4429 15.961 78.091 15.9708 78.4201 15.9513C78.799 15.9318 79.0284 15.8636 79.2677 15.6396C79.532 15.3814 79.7263 14.8409 79.8969 13.7403H82V13.0584H79.991C80.0434 12.6344 80.0943 12.1472 80.1452 11.5877C80.1552 11.4805 80.1751 11.2565 80.1751 11.2565H75.6483C75.7379 10.8862 75.8303 10.4846 75.92 10.0779H80.2948V9.43506H76.0586Z" fill="white"/>
<path fill-rule="evenodd" clip-rule="evenodd" d="M66.1746 11.6266V12.25H67.5109V13.3799H65.7558V14.0032H72.1079V13.3799H70.5523V12.25H71.8785V11.6266H70.5523V10.9643H69.8642V11.6266H68.189V10.9838H67.5109V11.6266H66.1746ZM68.189 13.3799V12.25H69.8642V13.3799H68.189Z" fill="white"/>
<path fill-rule="evenodd" clip-rule="evenodd" d="M43.1895 14.0909V13.4675H44.6254V9.06494H47.1383V8.4513H43.4687V7.81818H47.1383V7.00974H47.8762V7.81818H51.7852V8.4513H47.8762V9.06494H50.6385V13.4675H52.0445V14.0909H43.1895ZM45.3434 13.4675H49.8906V12.7857H45.3434V13.4675ZM45.3434 12.3182H49.8906V11.7338H45.3434V12.3182ZM45.3434 11.2565H49.8906V10.6818H45.3434V11.2565ZM45.3434 10.224H49.8906V9.58117H45.3434V10.224Z" fill="white"/>
<path d="M73.3245 9.65909V7.52597H81.7607V9.65909H80.9829V8.20779H74.0624V9.65909H73.3245Z" fill="white"/>
<path fill-rule="evenodd" clip-rule="evenodd" d="M105.32 26.2505C105.32 25.9898 105.336 25.4196 105.336 25.4196H101.424V23.8717H105.573C105.764 26.2238 106.11 28.471 106.651 30.2984C105.776 31.2876 104.759 32.1157 103.612 32.7515C104.107 33.2077 104.953 34.2016 105.288 34.7067C106.138 34.1597 106.93 33.5082 107.658 32.7639C108.338 33.9391 109.193 34.6415 110.254 34.6415C111.898 34.6415 112.649 33.9572 113 30.78C112.377 30.5356 111.563 29.9817 111.036 29.4277C110.956 31.4155 110.765 32.2301 110.445 32.2301C110.06 32.2301 109.67 31.686 109.312 30.7655C110.465 29.1244 111.389 27.1985 112.058 25.0611L109.711 24.4908C109.396 25.6095 108.983 26.659 108.478 27.6243C108.264 26.4884 108.09 25.2105 107.974 23.8717H112.84V21.5418H111.142L111.946 20.6945C111.387 20.1568 110.27 19.4399 109.455 19L108.05 20.4175C108.553 20.7329 109.148 21.1437 109.647 21.5418H107.835C107.811 20.7923 107.808 20.0385 107.827 19.2933H105.384C105.387 20.0364 105.403 20.7892 105.433 21.5418H98.9812V26.4297C98.9812 28.5642 98.9014 31.4481 97.7199 33.3707C98.2468 33.6477 99.3006 34.5275 99.6997 35C100.514 33.7498 100.957 32.0088 101.189 30.2753C101.506 30.8638 101.745 31.7506 101.775 32.4257C102.51 32.4257 103.18 32.4094 103.612 32.3279C104.091 32.2301 104.458 32.0672 104.809 31.5947C105.192 31.0733 105.272 29.5743 105.32 26.2505ZM101.197 30.2141C101.316 29.3052 101.378 28.4 101.406 27.5703H103.058C103.023 29.1922 102.963 29.8644 102.829 30.0631C102.701 30.2261 102.558 30.2749 102.35 30.2749C102.102 30.2749 101.674 30.2596 101.197 30.2141Z" fill="white"/>
<path d="M86.8673 22.112C87.1314 21.4187 87.3672 20.705 87.565 19.9939L85.1541 19.4399C84.6112 21.6395 83.5893 23.8717 82.3599 25.2077C82.9507 25.5336 83.9885 26.2342 84.4515 26.6415C84.9297 26.0332 85.4007 25.2744 85.839 24.4257H88.9062V26.9185H84.7709V29.1996H88.9062V32.002H82.8708V34.3157H97.4005V32.002H91.3332V29.1996H95.9156V26.9185H91.3332V24.4257H96.5543V22.112H91.3332V19.277H88.9062V22.112H86.8673Z" fill="white"/>
<path d="M47.3436 28.4645C47.4377 28.0285 47.4856 27.6141 47.4988 27.2444H43.8462V25.11H47.5026V23.4807H43.6866V21.2811H47.5026V19.3585H49.8018V27C49.8018 29.8513 48.9396 33.0611 45.0278 34.9837C44.6446 34.4134 43.9261 33.6802 43.3672 33.224C44.7784 32.6761 45.7414 31.786 46.3804 30.8057C45.6568 30.9237 44.9507 31.0375 44.2921 31.1436L43.4151 31.2851L43 28.9226C44.1273 28.8236 45.7056 28.6496 47.3436 28.4645Z" fill="white"/>
<path fill-rule="evenodd" clip-rule="evenodd" d="M72.6755 34.3305L67.632 19.7976H64.2697L59.1875 34.3305H62.2986L63.2841 31.3431H68.5306L69.4484 34.3305H72.6755ZM65.9218 23.1202L67.6996 28.8388H64.0861L65.9218 23.1202Z" fill="white"/>
<path d="M53.7456 19.3585V21.2811H57.9289V23.4807H53.7456V25.11H57.5457V27.2444H53.7456V28.9063H58.2163V31.1059H53.7456V34.7556H51.4144V19.3585H53.7456Z" fill="white"/>
<path d="M75.2125 22.2696V31.8618H73.4582V34.3339H79.719V31.8618H78.169V22.2696H79.719V19.7976H73.4582V22.2696H75.2125Z" fill="white"/>
</svg>

<svg width="131" height="42" fill="none" xmlns="http://www.w3.org/2000/svg"><path d="M.5.5H116c8.008 0 14.5 6.492 14.5 14.5v26.5H15C6.992 41.5.5 35.008.5 27V.5Z" fill="#000" stroke="#ACACAC"/><path d="M17.96 24.157a9.446 9.446 0 0 0 11.89 0l-1.34-1.654a7.316 7.316 0 0 1-9.21 0l-1.34 1.654ZM19.404 20.513v-2.877h2.13v2.877h-2.13ZM26.012 17.637v2.876h2.13v-2.877h-2.13Z" fill="#fff"/><path fill-rule="evenodd" clip-rule="evenodd" d="M35 21.5C35 27.851 29.851 33 23.5 33S12 27.851 12 21.5 17.149 10 23.5 10 35 15.149 35 21.5Zm-2.13 0a9.37 9.37 0 1 1-18.74 0 9.37 9.37 0 0 1 18.74 0Z" fill="#fff"/><path d="m62.844 12.172.2.711.185-.063.921-.315v2.55c0 .127-.05.166-.18.166-.109 0-.478 0-.907-.01.1.205.2.516.23.701.608 0 .987-.02 1.236-.136.24-.117.33-.322.33-.73v-2.783c.352-.12.708-.243 1.056-.364l-.11-.672c-.315.108-.634.214-.947.317V9.64h.948v-.682h-.948V7h-.708v1.958h-1.156v.682h1.156v2.133a48.45 48.45 0 0 1-1.306.4Z" fill="#fff"/><path fill-rule="evenodd" clip-rule="evenodd" d="M67.032 10.77c-.718 0-.897-.254-.897-.965V7.4h2.612v1.929h-1.984v.487c0 .302.05.39.27.39h1.266c.18 0 .448-.01.608-.04l.02.177c.014.133.03.28.05.379-.14.039-.4.049-.668.049h-1.277Zm-.269-2.864h1.376v.915h-1.376v-.915ZM70.074 10.72c-.708 0-.888-.243-.888-.954V7.4h2.623v1.9h-1.995v.477c0 .292.05.39.28.39h1.326c.18 0 .478-.02.638-.059.01.176.04.429.06.565-.14.049-.409.049-.688.049h-1.356Zm-.26-2.814h1.396v.886h-1.396v-.886Z" fill="#fff"/><path d="M67.83 14.13c-.558.545-1.516 1.052-2.373 1.373.17.117.448.35.578.477.838-.37 1.855-.983 2.473-1.597l-.678-.253ZM69.455 14.451c.758.458 1.736 1.13 2.224 1.549l.618-.39c-.518-.428-1.505-1.071-2.253-1.51l-.589.351ZM51.476 15.932c-.678-.37-1.815-.838-2.942-1.198l.47-.487c1.126.35 2.352.808 3.08 1.178l-.608.507ZM43 15.416c1.067-.254 2.403-.75 3.071-1.17l.688.43c-.837.496-2.173 1.003-3.24 1.275-.11-.146-.36-.4-.519-.535ZM57.156 7.217l.004-.188h.828l-.001.042c-.008.348-.019.818-.064 1.366.14 1.145.748 5.277 4.303 6.823-.22.165-.439.419-.549.623-2.507-1.144-3.587-3.548-4.077-5.368-.47 1.95-1.532 4.13-3.97 5.407-.13-.195-.379-.419-.608-.575 3.997-1.975 4.096-6.454 4.134-8.13ZM76.059 9.435c.079-.375.153-.742.217-1.081l-.748-.078c-.22 1.227-.598 2.893-.887 3.886l.758.068.086-.32h3.885c-.04.43-.082.812-.124 1.148h-6.16v.682h6.06c-.143.848-.305 1.284-.507 1.452-.12.097-.239.107-.468.107-.25 0-.938 0-1.626-.069.13.195.23.487.25.692.648.039 1.296.049 1.625.03.379-.02.608-.088.848-.312.264-.259.458-.8.629-1.9H82v-.682h-2.009c.052-.424.103-.91.154-1.47l.03-.331h-4.527c.09-.37.182-.772.272-1.18h4.375v-.642h-4.236Z" fill="#fff"/><path fill-rule="evenodd" clip-rule="evenodd" d="M66.175 11.627v.623h1.336v1.13h-1.755v.623h6.352v-.623h-1.556v-1.13h1.326v-.623h-1.326v-.663h-.688v.663H68.19v-.643h-.678v.643h-1.336Zm2.014 1.753v-1.13h1.675v1.13H68.19ZM43.19 14.09v-.623h1.435V9.066h2.513V8.45h-3.67v-.633h3.67V7.01h.738v.808h3.91v.633h-3.91v.614h2.763v4.402h1.405v.624H43.19Zm2.153-.623h4.548v-.681h-4.548v.681Zm0-1.149h4.548v-.584h-4.548v.584Zm0-1.061h4.548v-.575h-4.548v.575Zm0-1.033h4.548v-.643h-4.548v.643Z" fill="#fff"/><path d="M73.325 9.66V7.525h8.436v2.133h-.778V8.208h-6.92v1.451h-.739Z" fill="#fff"/><path fill-rule="evenodd" clip-rule="evenodd" d="M105.32 26.25c0-.26.016-.83.016-.83h-3.912v-1.548h4.149c.191 2.352.537 4.599 1.078 6.426a11.488 11.488 0 0 1-3.039 2.454c.495.456 1.341 1.45 1.676 1.955a13.657 13.657 0 0 0 2.37-1.943c.68 1.175 1.535 1.877 2.596 1.877 1.644 0 2.395-.684 2.746-3.861-.623-.244-1.437-.798-1.964-1.352-.08 1.988-.271 2.802-.591 2.802-.385 0-.775-.544-1.133-1.464 1.153-1.642 2.077-3.567 2.746-5.705l-2.347-.57a16.263 16.263 0 0 1-1.233 3.133 38.465 38.465 0 0 1-.504-3.752h4.866v-2.33h-1.698l.804-.848c-.559-.537-1.676-1.254-2.491-1.694l-1.405 1.418c.503.315 1.098.726 1.597 1.124h-1.812a39.215 39.215 0 0 1-.008-2.249h-2.443c.003.743.019 1.496.049 2.249h-6.452v4.888c0 2.134-.08 5.018-1.261 6.94.527.278 1.58 1.158 1.98 1.63.814-1.25 1.257-2.991 1.489-4.725.317.589.556 1.476.586 2.15.735 0 1.405-.016 1.837-.097.479-.098.846-.26 1.197-.733.383-.522.463-2.02.511-5.345Zm-4.123 3.964c.119-.909.181-1.814.209-2.644h1.652c-.035 1.622-.095 2.294-.229 2.493-.128.163-.271.212-.479.212-.248 0-.676-.015-1.153-.06Z" fill="#fff"/><path d="M86.867 22.112c.264-.693.5-1.407.698-2.118l-2.41-.554c-.544 2.2-1.566 4.432-2.795 5.768.59.326 1.629 1.026 2.091 1.434.479-.609.95-1.368 1.388-2.216h3.067v2.493h-4.135v2.28h4.135v2.803h-6.035v2.314H97.4v-2.314h-6.068V29.2h4.583v-2.281h-4.583v-2.493h5.221v-2.314h-5.22v-2.835h-2.428v2.835h-2.039ZM47.344 28.465c.094-.436.142-.85.155-1.22h-3.653V25.11h3.657v-1.63h-3.816v-2.199h3.816V19.36h2.299V27c0 2.851-.862 6.061-4.774 7.984-.383-.57-1.102-1.304-1.66-1.76 1.41-.548 2.373-1.438 3.012-2.418l-2.088.338-.877.141L43 28.923c1.127-.1 2.706-.273 4.344-.458Z" fill="#fff"/><path fill-rule="evenodd" clip-rule="evenodd" d="m72.675 34.33-5.043-14.532H64.27L59.188 34.33h3.11l.986-2.988h5.247l.917 2.988h3.228Zm-6.753-11.21L67.7 28.84h-3.614l1.836-5.719Z" fill="#fff"/><path d="M53.746 19.358v1.923h4.183v2.2h-4.183v1.629h3.8v2.134h-3.8v1.662h4.47v2.2h-4.47v3.65h-2.332V19.358h2.332ZM75.213 22.27v9.592h-1.755v2.472h6.261v-2.472h-1.55V22.27h1.55v-2.472h-6.26v2.472h1.754Z" fill="#fff"/></svg>
